tools/download-figma-icons/icons/solid/healthy.svg

<svg width="24" height="24" viewBox="0 0 24 24" fill="none" xmlns="http://www.w3.org/2000/svg">
<path fill-rule="evenodd" clip-rule="evenodd" d="M21.404 5.8605C19.5802 4.42856 16.8298 4.30904 13.2306 5.50346C13.3849 4.87259 13.6081 4.01251 13.8002 3.48376C14.1111 2.63503 14.8063 1.31277 14.8918 1.15316C14.9901 0.969342 15.0105 0.756782 14.9478 0.555568C14.8857 0.353598 14.7488 0.188693 14.5605 0.0888427C14.1769 -0.110102 13.6981 0.0351353 13.4878 0.423947C13.3131 0.758295 12.7518 1.84228 12.4084 2.70311C10.3993 -0.698614 7.00813 0.0820347 6.97182 0.0903556C6.76229 0.141794 6.58604 0.271145 6.49073 0.43605C6.32733 0.656931 6.29027 0.940597 6.39163 1.19627C7.82055 4.74475 10.5581 5.01555 11.7359 4.95731C11.6701 5.22131 11.6134 5.46261 11.5687 5.65172C7.75777 4.30374 4.8674 4.37409 2.97478 5.8605C1.12603 7.31136 0.394552 10.0247 0.911959 13.5021C0.919523 13.5467 0.929357 13.5936 0.935408 13.6382H1.69639L4.41732 11.6465C4.64047 11.4831 4.93094 11.44 5.19267 11.5316C5.4544 11.6246 5.6541 11.8402 5.72445 12.1087L6.13368 13.6458L7.75323 8.42787C7.87199 8.04435 8.24492 7.79397 8.6428 7.84087C9.04145 7.88323 9.35462 8.20018 9.39168 8.59958L10.0778 16.1042L11.1481 12.3273C11.2525 11.9605 11.5619 11.7048 11.9712 11.7161C12.3524 11.7229 12.6807 11.9854 12.7715 12.3561L13.0718 13.5732C13.2026 13.468 13.3668 13.4015 13.5438 13.3901L17.5 13.1397C17.9561 13.1254 18.3623 13.462 18.3918 13.9249C18.4213 14.3879 18.0688 14.7865 17.6059 14.816L14.2768 15.0271L13.826 17.015C13.7397 17.3947 13.4039 17.6655 13.0143 17.6686C12.6111 17.6512 12.2843 17.4084 12.1913 17.0294L11.8993 15.8395L10.4613 20.9099C10.3577 21.2738 10.0263 21.5204 9.65493 21.5204C9.62845 21.5204 9.60197 21.5196 9.5755 21.5174C9.17307 21.4795 8.85385 21.1611 8.81754 20.7571L8.10422 12.9627L6.87424 16.928C6.7638 17.2858 6.41584 17.4991 6.05501 17.5188C5.68133 17.5105 5.35682 17.2563 5.25999 16.8947L4.41807 13.7275L2.46721 15.1557C2.32272 15.2616 2.15026 15.3183 1.97174 15.3183H1.29245C2.12454 18.4651 3.92184 21.7768 6.56637 23.2209C7.51797 23.7405 8.51421 24 9.546 24C10.403 24 11.2866 23.8207 12.189 23.4629C14.1709 24.2474 16.0854 24.1641 17.8116 23.2209C20.9751 21.4931 22.9313 17.0944 23.4661 13.5021C23.9835 10.0247 23.2512 7.31136 21.404 5.8605Z" fill="black"/>
</svg>

<svg width="24" height="24" viewBox="0 0 24 24" fill="none" xmlns="http://www.w3.org/2000/svg"><path fill-rule="evenodd" clip-rule="evenodd" d="M21.404 5.86c-1.824-1.43-4.574-1.55-8.173-.357.154-.63.377-1.49.57-2.02.31-.848 1.005-2.17 1.09-2.33A.786.786 0 0 0 14.56.09a.802.802 0 0 0-1.072.335c-.175.334-.736 1.418-1.08 2.28C10.4-.7 7.008.081 6.972.09a.766.766 0 0 0-.481.346.784.784 0 0 0-.1.76c1.43 3.549 4.167 3.82 5.345 3.761-.066.264-.123.506-.167.695-3.811-1.348-6.702-1.278-8.594.208C1.126 7.312.395 10.026.912 13.503c.008.045.017.092.023.136h.761l2.721-1.992a.84.84 0 0 1 1.307.462l.41 1.538 1.62-5.218a.84.84 0 0 1 1.638.172l.686 7.504 1.07-3.777a.813.813 0 0 1 .823-.61.84.84 0 0 1 .8.64l.3 1.216a.84.84 0 0 1 .473-.183l3.956-.25c.456-.015.862.322.892.785a.84.84 0 0 1-.786.891l-3.33.211-.45 1.988a.84.84 0 0 1-.812.654c-.403-.018-.73-.26-.823-.64l-.292-1.19-1.438 5.07a.84.84 0 0 1-1.643-.152l-.714-7.794-1.23 3.965c-.11.358-.458.571-.819.59a.843.843 0 0 1-.795-.623l-.842-3.168-1.95 1.429a.836.836 0 0 1-.496.162h-.68c.833 3.147 2.63 6.459 5.274 7.903a6.14 6.14 0 0 0 2.98.779c.857 0 1.74-.18 2.643-.537 1.982.784 3.896.701 5.623-.242 3.163-1.728 5.12-6.127 5.654-9.719.517-3.477-.215-6.19-2.062-7.642Z" fill="currentColor"/></svg>
